X:1
T:Bois épais
T:Gloomy Woods
T:Jean-Baptiste Lully
%%score 1 { 2 | ( 3 4 5 ) }
L:1/8
Q:1/4=80
M:4/4
K:D
V:1 treble nm="Voix" snm="V."
V:2 treble nm="Piano" snm="Pno."
V:3 bass 
V:4 bass 
V:5 bass 
V:1
 z8 | z8 | z8 | z8 | z4 F3 F | (E4 E) z A2 | D4 D3 E | D4 C4 | z2 A2 A2 G2 | F2 D4 DC | %10
w: ||||Bois é-|pais * re-|dou- ble ton|om- bre;|tu ne sau-|rais être as- sez|
 C4 B, z B2 | B2 A2 G2 F2 | (E4 E) z F2 | ^G2 A2 (A2 G>)A | A3 z F3 F | (E4 E) z A2 | D4 D3 E | %17
w: som- bre, tu|ne peux trop ca-|cher * mon|mal- heu- reux * a-|mour. Bois é-|pais * re-|dou- ble ton|
 D4 C4 | z2 A2 A2 G2 | F2 D4 DC | C4 B, z B2 | B2 A2 G2 F2 | (E4 E) z F2 | ^G2 A2 (A2 G>)A | %24
w: om- bre;|tu ne sau-|rais être as- sez|som- bre, tu|ne peux trop ca-|cher * mon|mal- heu- reux * a-|
 A4 z2 A2 | ^A2 A2 A2 c2 | F4 F2 G2 | C4 C2 C2 | D4 B,4 | F2 F2 F2 G2 | A4 A2 B2 | F4 E4 | %32
w: mour. Je|sens un dé- ses-|poir dont l'hor-|reur est ex-|trê- me,|je ne dois plus|voir ce que|j'ai- me,|
 z2 A2 A2 d2 | G2 F2 E3 D | D4 z2 A2 | ^A2 A2 A2 c2 | F4 F2 G2 | C4 C2 C2 | D4 B,4 | F2 F2 F2 G2 | %40
w: je ne veux|plus souf- frir le|jour. Je|sens un dé- ses-|poir dont l'hor-|reur est ex-|trê- me,|je ne dois plus|
 A4 A2 B2 | F4 E4 | z2 A2 A2 d2 | G2 F2 E3 D | D8- | D8- | D8 |] %47
w: voir ce que|j'ai- me,|je ne veux|plus souf- frit le|jour.|||
V:2
 D4 [DF]2 DF | E6 [EA]2 | [DA]2 [DF]2 [D^G]2 DA | [CA]2 D2 E2 [CG]2 | [DF]2 D2 [DF]2 DF | %5
 E6 [EA]2 | D4 D3 E | D4 C4 | D2 [DA]2 [DA]2 [EG]2 | [DF]2 D4 DC | C4 z2 [DB]2 | %11
 [^DB]2 [FA]2 [EG]2 F2 | E6 [DF]2 | [DE^G]2 [CEA]2 [DEA]2 [DEG]>A | [CEA]2 C2 [DF]2 DF | E6 [EA]2 | %16
 D4 D3 E | D4 C4 | D2 [DA]2 [DA]2 [EG]2 | [DF]2 D4 DC | C4 z2 [DB]2 | [^DB]2 [FA]2 [EG]2 F2 | %22
 E6 [DF]2 | [DE^G]2 [CEA]2 [DEA]2 [DEG]>A | [CEA]2 C2 [CE]2 [CEA]2 | [E_B]2 [EGB]2 [DFB]2 [CEc]2 | %26
 [EF]2 DC F2 G2 | C4 C2 C2 | D4 z4 | [DF]2 [DF]2 [CDF]2 [DF]2 | [DG]2 D2 [DA]2 [DB]2 | %31
 [DF]2 D2 [CE]2 C2 | [DA]2 A2 A2 d2 | [CG]2 [DF]2 [DE]2 CD | D2 D2 [DF]2 [DFA]2 | %35
 [E_B]2 [EGB]2 [DFB]2 [CEc]2 | [EF]2 DC F2 G2 | C4 C2 C2 | D4 z4 | [DF]2 [DF]2 [CDF]2 [DF]2 | %40
 [DG]2 D2 [DA]2 [Dc]B | [DF]2 D2 [CE]2 C2 | [DA]2 A2 A2 d2 | [CG]2 [DF]2 [DE]2 CD | D8- | D8- | %46
 D8 |] %47
V:3
 [D,,A,,D,F,]2 [D,,A,,D,F,]2 [D,F,A,]2 [D,F,A,]2 | [D,E,G,B,]2 [D,E,G,B,]2 [C,E,A,]2 [C,E,A,]2 | %2
 [B,,F,A,]2 [B,,F,A,]2 [E,,B,,E,^G,]2 [E,,B,,E,G,]2 | [A,,E,A,]2 [B,,E,A,]2 [C,E,A,]2 [E,A,]2 | %4
 [D,,A,,D,F,A,]2 [D,F,A,]2 [D,F,A,]2 [D,F,A,]2 | [D,E,G,B,]2 [D,E,G,B,]2 [C,E,A,]2 [C,E,A,]2 | %6
 [B,,F,A,]2 [B,,F,A,]2 [E,,B,,E,^G,]2 [E,,B,,E,G,]2 | [A,,E,A,]2 [A,,E,A,]2 [A,,E,A,]2 [G,,E,A,]2 | %8
 [F,,D,A,]2 [F,,D,A,]2 [B,,,B,,A,]2 [C,,C,G,A,]2 | %9
 [D,,D,F,A,]2 [D,,,D,,D,][E,,,E,,E,] [F,,,F,,F,]2 [F,,,F,,D,A,]2 | %10
 [G,,,G,,D,_B,]2 [G,,,G,,D,B,]2 [G,,,G,,D,=B,]2 [G,,G,B,]2 | %11
 [F,,F,B,]2 [^D,,^D,A,B,]2 [E,,E,G,B,]2 [=D,,=D,F,^G,B,]2 | %12
 [C,,C,E,B,]2 [C,,C,A,]^G, [C,,C,A,]2 [D,,D,F,A,B,]2 | %13
 [B,,,B,,^G,]2 [A,,,A,,A,]2 [E,,,E,,A,]2 [E,,B,,E,G,]2 | %14
 [A,,,A,,A,]2 [A,,E,G,]2 [D,,D,F,A,]2 [D,F,A,]2 | [D,E,G,B,]2 [D,E,G,B,]2 [C,E,A,]2 [C,E,A,]2 | %16
 [B,,F,A,]2 [B,,F,A,]2 [E,,B,,E,^G,]2 [E,,B,,E,G,]2 | [A,,E,A,]2 [A,,E,A,]2 [A,,E,A,]2 [G,,E,A,]2 | %18
 [F,,D,A,]2 [F,,D,A,]2 [B,,,B,,A,]2 [C,,C,G,A,]2 | %19
 [D,,D,F,A,]2 [D,,,D,,D,][E,,,E,,E,] [F,,,F,,F,]2 [F,,,F,,D,A,]2 | %20
 [G,,,G,,D,_B,]2 [G,,,G,,D,B,]2 [G,,,G,,D,=B,]2 [G,,G,B,]2 | %21
 [F,,F,B,]2 [^D,,^D,A,B,]2 [E,,E,G,B,]2 [=D,,=D,F,^G,B,]2 | %22
 [C,,C,E,B,]2 [C,,C,A,]^G, [C,,C,A,]2 [D,,D,F,A,B,]2 | %23
 [B,,,B,,^G,]2 [A,,,A,,A,]2 [E,,,E,,A,]2 [E,,B,,E,G,]2 | %24
 [A,,,A,,A,]2 [A,,,A,,E,A,]2 [A,,,A,,E,A,]2 [G,,,G,,A,]2 | [F,,,F,,_B,]2 F,2 F,2 [_B,,F,]2 | %26
 [B,,F,]2 B,,C, [D,B,]2 [E,G,B,]2 | [F,B,]2 [F,B,]2 [F,,E,F,_B,]2 [F,,E,F,B,]2 | %28
 [B,,,B,,D,F,B,]2 [B,,,B,,D,F,B,][C,,C,] [D,,D,B,]2 [B,,,B,,]2 | B,,2 B,,2 A,,2 [G,,B,]2 | %30
 [F,,A,]2 [F,,A,]2 [F,,A,,]2 [G,,B,,]2 | A,,2 [^G,,B,]2 A,,2 [=G,,A,]2 | [D,F,A,]8 | %33
 [E,,A,,E,G,A,]2 [D,,A,,D,F,A,]2 [A,,,A,,A,]2 [A,,,,A,,,A,]2 | %34
 [D,,,D,,D,F,]2 [D,F,A,]2 [F,A,]2 A,2 | [F,,,F,,_B,]2 F,2 F,2 [_B,,F,]2 | %36
 [B,,F,]2 B,,C, [D,B,]2 [E,G,B,]2 | [F,B,]2 [F,B,]2 [F,,E,F,_B,]2 [F,,E,F,B,]2 | %38
 [B,,,B,,D,F,B,]2 [B,,,B,,D,F,B,][C,,C,] [D,,D,B,]2 [B,,,B,,]2 | B,,2 B,,2 A,,2 [G,,B,]2 | %40
 [F,,A,]2 [F,,A,]2 [F,,A,,]2 [G,,B,,]2 | A,,2 [^G,,B,]2 A,,2 [=G,,A,]2 | [D,F,A,]8 | %43
 [E,,A,,E,G,A,]2 [D,,A,,D,F,A,]2 [A,,,A,,A,]2 [A,,,,A,,,A,]2 | %44
 [D,,,D,,D,F,]2 [E,,,E,,D,G,]2 [F,,,F,,D,A,]2 [E,,,E,,D,G,]2 | [D,,,D,,D,F,]4 [D,,,D,,D,F,]4 | %46
 [D,F,]8 |] %47
V:4
 x8 | x8 | x8 | x8 | x8 | x8 | x8 | x8 | x8 | x8 | x8 | x8 | x8 | x8 | x8 | x8 | x8 | x8 | x8 | %19
 x8 | x8 | x8 | x8 | x8 | x8 | x8 | x8 | x8 | x8 | x8 | x8 | x8 | F,,8 | z8 | x8 | x8 | x8 | x8 | %38
 x8 | x8 | x8 | x8 | F,,8 | x8 | x8 | x8 | D,,8 |] %47
V:5
 x8 | x8 | x8 | x8 | x8 | x8 | x8 | x8 | x8 | x8 | x8 | x8 | x8 | x8 | x8 | x8 | x8 | x8 | x8 | %19
 x8 | x8 | x8 | x8 | x8 | x8 | x8 | x8 | x8 | x8 | x8 | x8 | x8 | x8 | x8 | x8 | x8 | x8 | x8 | %38
 x8 | x8 | x8 | x8 | x8 | x8 | x8 | x8 | D,,,8 |] %47

